resources/icons/16px/emoji.svg

<?xml version="1.0" encoding="UTF-8"?>
<svg width="16px" height="16px" viewBox="0 0 16 16" version="1.1" xmlns="http://www.w3.org/2000/svg" xmlns:xlink="http://www.w3.org/1999/xlink">
    <title>emoji</title>
    <g id="emoji" stroke="none" stroke-width="1" fill="none" fill-rule="evenodd">
        <path d="M8,0 C12.418278,0 16,3.581722 16,8 C16,12.418278 12.418278,16 8,16 C3.581722,16 0,12.418278 0,8 C0,3.581722 3.581722,0 8,0 Z M8,1 C4.13400675,1 1,4.13400675 1,8 C1,11.8659932 4.13400675,15 8,15 C11.8659932,15 15,11.8659932 15,8 C15,4.13400675 11.8659932,1 8,1 Z M4,8 C4.22763728,10.2619138 6,12 8,12 C9.9375,12 11.7707248,10.2617293 11.9844259,8.20044045 L12,8 L13,8 C12.8716545,10.887515 10.6825259,13 8,13 C5.3112453,13 3.11818189,10.8776933 3.00461951,8.21688962 L3,8 L4,8 Z M6,5 C6.55228475,5 7,5.44771525 7,6 C7,6.55228475 6.55228475,7 6,7 C5.44771525,7 5,6.55228475 5,6 C5,5.44771525 5.44771525,5 6,5 Z M10,5 C10.5522847,5 11,5.44771525 11,6 C11,6.55228475 10.5522847,7 10,7 C9.44771525,7 9,6.55228475 9,6 C9,5.44771525 9.44771525,5 10,5 Z" id="Shape" fill="#000000"></path>
    </g>
</svg>

<svg xmlns="http://www.w3.org/2000/svg" viewBox="0 0 16 16">
  <path d="M8 0a8 8 0 1 1 0 16A8 8 0 0 1 8 0m0 1a7 7 0 1 0 0 14A7 7 0 0 0 8 1M4 8c.228 2.262 2 4 4 4 1.938 0 3.77-1.738 3.984-3.8L12 8h1c-.128 2.888-2.317 5-5 5a5 5 0 0 1-4.995-4.783L3 8zm2-3a1 1 0 1 1 0 2 1 1 0 0 1 0-2m4 0a1 1 0 1 1 0 2 1 1 0 0 1 0-2"/>
</svg>
